archdroid-icon-theme/Archdroid-Grey/actions/scalable/hb-canceled.svg

<svg xmlns="http://www.w3.org/2000/svg" viewBox="0 0 48 48" fill="#9E9E9E"><path d="m24 4c-11.05 0-20 8.95-20 20 0 11.05 8.95 20 20 20 11.05 0 20-8.95 20-20 0-11.05-8.95-20-20-20m-16 20c0-8.84 7.16-16 16-16 3.7 0 7.09 1.27 9.8 3.37l-22.43 22.43c-2.1-2.71-3.37-6.1-3.37-9.8m16 16c-3.7 0-7.09-1.27-9.8-3.37l22.43-22.43c2.1 2.71 3.37 6.1 3.37 9.8 0 8.84-7.16 16-16 16"/></svg>

<?xml version="1.0" encoding="UTF-8" standalone="no"?>
<svg
   xmlns:dc="http://purl.org/dc/elements/1.1/"
   xmlns:cc="http://creativecommons.org/ns#"
   xmlns:rdf="http://www.w3.org/1999/02/22-rdf-syntax-ns#"
   xmlns:svg="http://www.w3.org/2000/svg"
   xmlns="http://www.w3.org/2000/svg"
   xmlns:sodipodi="http://sodipodi.sourceforge.net/DTD/sodipodi-0.dtd"
   xmlns:inkscape="http://www.inkscape.org/namespaces/inkscape"
   width="48"
   height="48"
   viewBox="0 0 48 48"
   id="svg2"
   version="1.1"
   inkscape:version="0.91 r13725"
   sodipodi:docname="hb-canceled.svg"
   style="fill:#9E9E9E">
  <metadata
     id="metadata10">
    <rdf:RDF>
      <cc:Work
         rdf:about="">
        <dc:format>image/svg+xml</dc:format>
        <dc:type
           rdf:resource="http://purl.org/dc/dcmitype/StillImage" />
        <dc:title />
      </cc:Work>
    </rdf:RDF>
  </metadata>
  <defs
     id="defs8" />
  <sodipodi:namedview
     pagecolor="#ffffff"
     bordercolor="#666666"
     borderopacity="1"
     objecttolerance="10"
     gridtolerance="10"
     guidetolerance="10"
     inkscape:pageopacity="0"
     inkscape:pageshadow="2"
     inkscape:window-width="668"
     inkscape:window-height="480"
     id="namedview6"
     showgrid="false"
     fit-margin-top="0"
     fit-margin-left="0"
     fit-margin-right="0"
     fit-margin-bottom="0"
     inkscape:zoom="6.549153645833334"
     inkscape:cx="20"
     inkscape:cy="20"
     inkscape:window-x="0"
     inkscape:window-y="30"
     inkscape:window-maximized="0"
     inkscape:current-layer="svg2" />
  <path
     d="M 24,4 C 12.95,4 4,12.95 4,24 4,35.05 12.95,44 24,44 35.05,44 44,35.05 44,24 44,12.95 35.05,4 24,4 Z M 8,24 C 8,15.16 15.16,8 24,8 c 3.7,0 7.09,1.27 9.8,3.369999999999999 L 11.37,33.8 C 9.269999999999999,31.09 8,27.7 8,24 Z m 16,16 c -3.7,0 -7.09,-1.27 -9.8,-3.37 L 36.63,14.2 C 38.73,16.91 40,20.3 40,24 40,32.84000000000001 32.84000000000001,40 24,40 Z"
     id="path4"
     inkscape:connector-curvature="0" />
</svg>
